resources/svg/major-email-newsletter.svg

<svg xmlns="http://www.w3.org/2000/svg" viewBox="0 0 20 20" fill="currentColor"><path d="M7 4h6v2h-6v-2zm4 4h-4v2h4v-2z"/><path fill-rule="evenodd" d="M3 10v-8.5a1.5 1.5 0 0 1 1.5-1.5h11a1.5 1.5 0 0 1 1.5 1.5v8.5h2v7.5a1.5 1.5 0 0 1-1.5 1.5h-15a1.5 1.5 0 0 1-1.5-1.5v-7.5h2zm2 2v-10h10v10l-5 2.771-5-2.771z"/></svg>

<svg xmlns="http://www.w3.org/2000/svg" viewBox="0 0 20 20" fill="currentColor"><path d="M7 4h6v2H7V4zM11 8H7v2h4V8z" fill="#5C5F62"/><path fill-rule="evenodd" d="M3 10V1.5A1.5 1.5 0 014.5 0h11A1.5 1.5 0 0117 1.5V10h2v7.5a1.5 1.5 0 01-1.5 1.5h-15A1.5 1.5 0 011 17.5V10h2zm2 2V2h10v10l-5 2.771L5 12z" fill="#5C5F62"/></svg>
